;FLAVOR:Marlin
;TIME:9289
;Filament used: 6.38579m
;Layer height: 0.2
;MINX:85.191
;MINY:74.124
;MINZ:0.1
;MAXX:149.804
;MAXY:160.865
;MAXZ:39
;TARGET_MACHINE.NAME:Creality Ender-3
;Generated with Cura_SteamEngine 5.6.0
M140 S50
M105
M190 S50
M104 S200
M105
M109 S200
M82 ;absolute extrusion mode
; Ender 3 Custom Start G-code
G92 E0 ; Reset Extruder
G28 ; Home all axes
G1 Z2.0 F3000 ; Move Z Axis up little to prevent scratching of Heat Bed
G1 X0.1 Y20 Z0.3 F5000.0 ; Move to start position
G1 X0.1 Y200.0 Z0.3 F1500.0 E15 ; Draw the first line
G1 X0.4 Y200.0 Z0.3 F5000.0 ; Move to side a little
G1 X0.4 Y20 Z0.3 F1500.0 E30 ; Draw the second line
G92 E0 ; Reset Extruder
G1 Z2.0 F3000 ; Move Z Axis up little to prevent scratching of Heat Bed
G1 X5 Y20 Z0.3 F5000.0 ; Move over to prevent blob squish
G92 E0
G92 E0
G1 F2700 E-5
;LAYER_COUNT:195
;LAYER:0
M107
G0 F6000 X94.326 Y81.618 Z0.2
;TYPE:SKIRT
G1 F2700 E0
G1 F1200 X94.676 Y81.225 E0.0175
G1 X95.27 Y80.589 E0.04645
G1 X95.905 Y79.964 E0.07608
G1 X96.667 Y79.286 E0.11001
G1 X97.306 Y78.764 E0.13745
G1 X97.838 Y78.354 E0.15979
G1 X98.521 Y77.869 E0.18765
G1 X99.07 Y77.511 E0.20945
G1 X99.78 Y77.084 E0.23701
G1 X100.284 Y76.811 E0.25607
G1 X101.026 Y76.435 E0.28374
G1 X101.707 Y76.119 E0.30871
G1 X102.469 Y75.809 E0.33607
G1 X103.319 Y75.511 E0.36603
G1 X103.672 Y75.402 E0.37831
G1 X104.521 Y75.175 E0.40754
G1 X105.48 Y74.96 E0.44023
G1 X106.286 Y74.813 E0.46748
G1 X107.615 Y74.629 E0.51211
G1 X109.672 Y74.407 E0.58092
G1 X110.603 Y74.334 E0.61198
G1 X111.606 Y74.28 E0.64539
G1 X112.746 Y74.257 E0.68331
G1 X114.943 Y74.269 E0.75639
G1 X117.548 Y74.213 E0.84305
G1 X118.667 Y74.167 E0.8803
G1 X120.839 Y74.124 E0.95255
G1 X122.265 Y74.141 E0.99999
G1 X123.949 Y74.193 E1.05602
G1 X125.192 Y74.258 E1.09742
G1 X126.342 Y74.352 E1.1358
G1 X127.292 Y74.462 E1.16761
G1 X127.842 Y74.545 E1.18611
G1 X128.57 Y74.676 E1.21071
G1 X129.666 Y74.908 E1.24797
G1 X130.445 Y75.111 E1.27474
G1 X131.256 Y75.354 E1.3029
G1 X131.976 Y75.599 E1.3282
G1 X132.621 Y75.847 E1.35118
G1 X133.318 Y76.142 E1.37636
G1 X134.204 Y76.555 E1.40887
G1 X135.04 Y76.992 E1.44024
G1 X135.518 Y77.269 E1.45862
G1 X136.297 Y77.76 E1.48925
G1 X137.039 Y78.279 E1.51936
G1 X137.623 Y78.727 E1.54384
G1 X138.077 Y79.108 E1.56356
G1 X138.714 Y79.673 E1.59188
G1 X139.428 Y80.369 E1.62504
G1 X139.813 Y80.781 E1.6438
G1 X140.398 Y81.463 E1.67368
G1 X141.004 Y82.232 E1.70624
G1 X141.461 Y82.86 E1.73208
G1 X141.923 Y83.564 E1.76008
G1 X142.436 Y84.42 E1.79328
G1 X142.837 Y85.142 E1.82075
G1 X143.208 Y85.865 E1.84777
G1 X143.629 Y86.747 E1.88028
G1 X143.944 Y87.453 E1.90599
G1 X144.305 Y88.319 E1.9372
G1 X144.71 Y89.36 E1.97435
G1 X145.255 Y90.805 E2.02572
G1 X146.607 Y94.231 E2.14822
G1 X147.127 Y95.643 E2.19826
G1 X147.474 Y96.698 E2.2352
G1 X147.753 Y97.634 E2.26769
G1 X147.87 Y98.079 E2.28299
G1 X148.18 Y99.386 E2.32767
G1 X148.427 Y100.611 E2.36923
G1 X148.855 Y103 E2.44996
G1 X149.09 Y104.408 E2.49743
G1 X149.281 Y105.696 E2.54074
G1 X149.397 Y106.627 E2.57195
G1 X149.494 Y107.579 E2.60377
G1 X149.601 Y109.017 E2.65173
G1 X149.669 Y110.27 E2.69347
G1 X149.776 Y113.56 E2.80295
G1 X149.804 Y115.143 E2.85561
G1 X149.796 Y116.567 E2.90298
G1 X149.77 Y117.309 E2.92767
G1 X149.71 Y118.449 E2.96564
G1 X149.644 Y119.275 E2.9932
G1 X149.542 Y120.308 E3.02772
G1 X149.417 Y121.396 E3.06415
G1 X149.289 Y122.363 E3.09659
G1 X148.795 Y125.872 E3.21445
G1 X148.577 Y127.265 E3.26135
G1 X148.359 Y128.426 E3.30064
G1 X148.132 Y129.451 E3.33556
G1 X147.75 Y130.907 E3.38562
G1 X147.625 Y131.339 E3.40058
G1 X147.228 Y132.6 E3.44455
G1 X146.562 Y134.566 E3.51359
G1 X145.412 Y138.052 E3.63568
G1 X145.004 Y139.168 E3.6752
G1 X144.677 Y139.981 E3.70435
G1 X144.434 Y140.528 E3.72425
G1 X144.147 Y141.127 E3.74635
G1 X143.725 Y141.922 E3.77628
G1 X143.282 Y142.679 E3.80545
G1 X142.776 Y143.46 E3.83641
G1 X142.4 Y143.992 E3.85807
G1 X142.098 Y144.397 E3.87488
G1 X141.497 Y145.163 E3.90726
G1 X141.168 Y145.563 E3.92449
G1 X140.55 Y146.276 E3.95587
G1 X140.168 Y146.694 E3.9747
G1 X139.829 Y147.045 E3.99093
G1 X139.168 Y147.672 E4.02124
G1 X138.488 Y148.262 E4.05118
G1 X136.106 Y150.236 E4.15407
G1 X134.237 Y151.883 E4.23693
G1 X132.361 Y153.63 E4.32219
G1 X131.069 Y154.896 E4.38235
G1 X130.383 Y155.544 E4.41374
G1 X129.666 Y156.186 E4.44575
G1 X128.77 Y156.931 E4.48451
G1 X127.815 Y157.663 E4.52453
G1 X127.216 Y158.085 E4.5489
G1 X126.733 Y158.4 E4.56808
G1 X125.958 Y158.86 E4.59805
G1 X125.339 Y159.193 E4.62143
G1 X124.326 Y159.67 E4.65867
G1 X123.886 Y159.849 E4.67447
G1 X122.954 Y160.178 E4.70734
G1 X122.657 Y160.267 E4.71766
G1 X121.965 Y160.453 E4.74149
G1 X121.719 Y160.51 E4.74989
G1 X120.721 Y160.692 E4.78363
G1 X120.203 Y160.762 E4.80101
G1 X118.936 Y160.856 E4.84327
G1 X118.314 Y160.865 E4.86396
G1 X117.411 Y160.839 E4.89401
G1 X116.466 Y160.731 E4.92564
G1 X115.953 Y160.65 E4.94292
G1 X115.011 Y160.456 E4.9749
G1 X114.517 Y160.329 E4.99187
G1 X113.828 Y160.129 E5.01573
G1 X113.56 Y160.042 E5.0251
G1 X112.91 Y159.804 E5.04813
G1 X111.886 Y159.378 E5.08501
G1 X110.947 Y158.947 E5.11938
G1 X110.036 Y158.49 E5.15328
G1 X109.553 Y158.225 E5.1716
G1 X108.87 Y157.828 E5.19788
G1 X108.023 Y157.283 E5.23138
G1 X107.598 Y156.979 E5.24876
G1 X106.958 Y156.493 E5.27548
G1 X106.492 Y156.105 E5.29565
G1 X105.71 Y155.41 E5.33045
G1 X103.983 Y153.81 E5.40875
G1 X102.084 Y152.149 E5.49266
G1 X100.107 Y150.517 E5.57793
G1 X97.959 Y148.838 E5.66861
G1 X97.05 Y148.087 E5.70783
G1 X96.326 Y147.442 E5.74008
G1 X95.843 Y146.983 E5.76224
G1 X95.323 Y146.45 E5.787
G1 X94.729 Y145.801 E5.81627
G1 X94.252 Y145.241 E5.84073
G1 X93.834 Y144.724 E5.86285
G1 X93.208 Y143.889 E5.89756
G1 X92.804 Y143.297 E5.92139
G1 X92.429 Y142.705 E5.9447
G1 X92.07 Y142.092 E5.96833
G1 X91.5 Y141.045 E6.00798
G1 X91.167 Y140.377 E6.0328
G1 X90.716 Y139.374 E6.06938
G1 X90.372 Y138.539 E6.09942
G1 X90.072 Y137.751 E6.12746
G1 X89.719 Y136.753 E6.16267
G1 X89.146 Y135.04 E6.22275
G1 X87.878 Y131.381 E6.35155
G1 X87.626 Y130.598 E6.37891
G1 X87.311 Y129.55 E6.4153
G1 X87.057 Y128.617 E6.44746
G1 X86.82 Y127.658 E6.48032
G1 X86.618 Y126.754 E6.51113
G1 X86.429 Y125.821 E6.54279
G1 X86.261 Y124.889 E6.57429
G1 X86.078 Y123.757 E6.61243
G1 X85.911 Y122.586 E6.65177
G1 X85.669 Y120.622 E6.71759
G1 X85.541 Y119.407 E6.75822
G1 X85.343 Y117.18 E6.83258
G1 X85.274 Y116.104 E6.86845
G1 X85.222 Y114.936 E6.90733
G1 X85.197 Y113.883 E6.94236
G1 X85.191 Y113.037 E6.9705
G1 X85.21 Y111.675 E7.01581
G1 X85.249 Y110.685 E7.04876
G1 X85.299 Y109.752 E7.07984
G1 X85.401 Y108.414 E7.12447
G1 X85.508 Y107.309 E7.16139
G1 X85.643 Y106.117 E7.20129
G1 X85.737 Y105.399 E7.22538
G1 X85.955 Y103.939 E7.27448
G1 X86.172 Y102.656 E7.31775
G1 X86.478 Y101.008 E7.3735
G1 X86.706 Y99.919 E7.41051
G1 X87.066 Y98.364 E7.4636
G1 X87.531 Y96.596 E7.5244
G1 X88.007 Y94.968 E7.58081
G1 X88.344 Y93.92 E7.61743
G1 X88.907 Y92.298 E7.67453
G1 X89.435 Y90.882 E7.7248
G1 X89.948 Y89.556 E7.77209
G1 X90.559 Y88.034 E7.82664
G1 X91.038 Y86.931 E7.86663
G1 X91.502 Y85.952 E7.90267
G1 X91.946 Y85.102 E7.93456
G1 X92.242 Y84.586 E7.95435
G1 X92.793 Y83.693 E7.98925
G1 X93.192 Y83.097 E8.0131
G1 X93.586 Y82.546 E8.03563
G1 X93.848 Y82.204 E8.04996
G1 X94.326 Y81.618 E8.07511
G0 F6000 X94.625 Y81.884
G1 F1200 X94.969 Y81.498 E8.09231
G1 X95.551 Y80.874 E8.12069
G1 X96.171 Y80.263 E8.14964
G1 X96.92 Y79.596 E8.183
G1 X97.55 Y79.081 E8.21006
G1 X98.07 Y78.68 E8.2319
G1 X98.739 Y78.204 E8.25921
G1 X99.276 Y77.854 E8.28053
G1 X99.97 Y77.436 E8.30748
G1 X100.465 Y77.168 E8.3262
G1 X101.195 Y76.798 E8.35342
G1 X101.858 Y76.49 E8.37774
G1 X102.62 Y76.18 E8.4051
G1 X103.438 Y75.893 E8.43393
G1 X103.776 Y75.788 E8.4457
G1 X104.608 Y75.565 E8.47435
G1 X105.552 Y75.354 E8.50652
G1 X106.358 Y75.207 E8.53377
G1 X107.658 Y75.027 E8.57742
G1 X109.704 Y74.806 E8.64587
G1 X110.624 Y74.733 E8.67657
G1 X111.614 Y74.68 E8.70954
G1 X112.744 Y74.657 E8.74713
G1 X114.95 Y74.669 E8.8205
G1 X117.565 Y74.613 E8.9075
G1 X118.675 Y74.567 E8.94445
G1 X120.834 Y74.524 E9.01627
G1 X122.253 Y74.541 E9.06347
G1 X123.928 Y74.592 E9.11921
G1 X125.16 Y74.657 E9.16024
G1 X126.296 Y74.749 E9.19815
G1 X127.232 Y74.857 E9.22949
G1 X127.772 Y74.939 E9.24765
G1 X128.487 Y75.067 E9.27181
G1 X129.565 Y75.295 E9.30846
G1 X130.33 Y75.494 E9.33475
G1 X131.127 Y75.733 E9.36243
G1 X131.847 Y75.978 E9.38772
G1 X132.465 Y76.215 E9.40974
G1 X133.149 Y76.504 E9.43443
G1 X134.019 Y76.91 E9.46637
G1 X134.839 Y77.338 E9.49713
G1 X135.305 Y77.608 E9.51504
G1 X136.068 Y78.088 E9.54503
G1 X136.796 Y78.596 E9.57455
G1 X137.366 Y79.033 E9.59844
G1 X137.812 Y79.407 E9.6178
G1 X138.435 Y79.959 E9.64548
G1 X139.136 Y80.642 E9.67804
G1 X139.51 Y81.042 E9.69625
G1 X140.084 Y81.71 E9.72554
G1 X140.681 Y82.468 E9.75763
G1 X141.127 Y83.08 E9.78282
G1 X141.58 Y83.77 E9.81028
G1 X142.086 Y84.614 E9.84301
G1 X142.481 Y85.325 E9.87006
G1 X142.847 Y86.037 E9.89668
G1 X143.264 Y86.91 E9.92886
G1 X143.575 Y87.607 E9.95425
G1 X143.932 Y88.464 E9.98513
G1 X144.336 Y89.501 E10.02214
G1 X144.883 Y90.952 E10.07372
G1 X146.232 Y94.369 E10.1959
G1 X146.747 Y95.768 E10.24549
G1 X147.091 Y96.812 E10.28205
G1 X147.366 Y97.736 E10.31411
G1 X147.481 Y98.171 E10.32908
G1 X147.788 Y99.465 E10.37331
G1 X148.033 Y100.681 E10.41457
G1 X148.46 Y103.066 E10.49515
G1 X148.694 Y104.467 E10.5424
G1 X148.884 Y105.745 E10.58537
G1 X148.999 Y106.668 E10.61631
G1 X149.095 Y107.609 E10.64777
G1 X149.202 Y109.038 E10.69543
G1 X149.269 Y110.283 E10.7369
G1 X149.376 Y113.567 E10.84618
G1 X149.404 Y115.141 E10.89854
G1 X149.396 Y116.553 E10.94551
G1 X149.371 Y117.288 E10.96997
G1 X149.311 Y118.417 E11.00757
G1 X149.246 Y119.236 E11.0349
G1 X149.145 Y120.262 E11.06919
G1 X149.02 Y121.344 E11.10541
G1 X148.893 Y122.307 E11.13772
G1 X148.4 Y125.81 E11.25538
G1 X148.184 Y127.191 E11.30187
G1 X147.968 Y128.34 E11.34075
G1 X147.745 Y129.35 E11.37516
G1 X147.366 Y130.796 E11.42487
G1 X147.244 Y131.219 E11.43952
G1 X146.849 Y132.472 E11.48321
G1 X146.183 Y134.438 E11.55225
G1 X145.036 Y137.915 E11.67403
G1 X144.633 Y139.019 E11.71312
G1 X144.311 Y139.819 E11.7418
G1 X144.073 Y140.355 E11.76131
G1 X143.786 Y140.954 E11.7834
G1 X143.38 Y141.72 E11.81223
G1 X142.946 Y142.462 E11.84082
G1 X142.45 Y143.229 E11.8712
G1 X142.079 Y143.753 E11.89256
G1 X141.783 Y144.15 E11.90903
G1 X141.188 Y144.909 E11.9411
G1 X140.866 Y145.301 E11.95798
G1 X140.255 Y146.006 E11.98901
G1 X139.88 Y146.416 E12.00749
G1 X139.553 Y146.755 E12.02315
G1 X138.906 Y147.37 E12.05284
G1 X138.233 Y147.954 E12.08248
G1 X135.851 Y149.928 E12.18537
G1 X133.964 Y151.59 E12.26901
G1 X132.088 Y153.337 E12.35427
G1 X130.794 Y154.605 E12.41453
G1 X130.116 Y155.246 E12.44556
G1 X129.41 Y155.878 E12.47708
G1 X128.514 Y156.623 E12.51583
G1 X127.584 Y157.336 E12.55481
G1 X126.997 Y157.75 E12.5787
G1 X126.529 Y158.056 E12.5973
G1 X125.768 Y158.508 E12.62674
G1 X125.168 Y158.831 E12.6494
G1 X124.175 Y159.299 E12.68591
G1 X123.735 Y159.478 E12.70171
G1 X122.839 Y159.795 E12.73332
G1 X122.553 Y159.881 E12.74326
G1 X121.875 Y160.063 E12.76661
G1 X121.629 Y160.12 E12.775
G1 X120.667 Y160.296 E12.80753
G1 X120.173 Y160.363 E12.82411
G1 X118.93 Y160.456 E12.86557
G1 X118.326 Y160.465 E12.88566
G1 X117.423 Y160.439 E12.91571
G1 X116.528 Y160.336 E12.94567
G1 X116.034 Y160.258 E12.96231
G1 X115.092 Y160.064 E12.99429
G1 X114.628 Y159.945 E13.01023
G1 X113.952 Y159.749 E13.03364
G1 X113.698 Y159.666 E13.04252
G1 X113.048 Y159.428 E13.06555
G1 X112.053 Y159.014 E13.10139
G1 X111.126 Y158.589 E13.13531
G1 X110.228 Y158.139 E13.16872
G1 X109.754 Y157.879 E13.1867
G1 X109.071 Y157.482 E13.21297
G1 X108.255 Y156.957 E13.24525
G1 X107.84 Y156.661 E13.2622
G1 X107.214 Y156.185 E13.28836
G1 X106.758 Y155.806 E13.30808
G1 X105.982 Y155.117 E13.34259
G1 X104.255 Y153.517 E13.4209
G1 X102.347 Y151.848 E13.50521
G1 X100.362 Y150.209 E13.59083
G1 X98.214 Y148.53 E13.68151
G1 X97.316 Y147.788 E13.72025
G1 X96.602 Y147.152 E13.75205
G1 X96.119 Y146.693 E13.77422
G1 X95.618 Y146.18 E13.79806
G1 X95.033 Y145.541 E13.82688
G1 X94.563 Y144.99 E13.85097
G1 X94.154 Y144.484 E13.87261
G1 X93.538 Y143.663 E13.90675
G1 X93.142 Y143.083 E13.9301
G1 X92.774 Y142.503 E13.95295
G1 X92.421 Y141.901 E13.97616
G1 X91.858 Y140.867 E14.01532
G1 X91.532 Y140.213 E14.03962
G1 X91.086 Y139.222 E14.07577
G1 X90.746 Y138.397 E14.10545
G1 X90.449 Y137.618 E14.13318
G1 X90.098 Y136.626 E14.16817
G1 X89.525 Y134.913 E14.22825
G1 X88.259 Y131.258 E14.3569
G1 X88.009 Y130.483 E14.38399
G1 X87.697 Y129.445 E14.42004
G1 X87.445 Y128.521 E14.45189
G1 X87.21 Y127.571 E14.48444
G1 X87.01 Y126.675 E14.51498
G1 X86.823 Y125.75 E14.54637
G1 X86.656 Y124.825 E14.57763
G1 X86.474 Y123.701 E14.6155
G1 X86.308 Y122.537 E14.65461
G1 X86.067 Y120.58 E14.72019
G1 X85.939 Y119.372 E14.76059
G1 X85.742 Y117.155 E14.83462
G1 X85.674 Y116.086 E14.87025
G1 X85.622 Y114.926 E14.90887
G1 X85.597 Y113.88 E14.94367
G1 X85.591 Y113.043 E14.97151
G1 X85.61 Y111.69 E15.01651
G1 X85.648 Y110.707 E15.04923
G1 X85.698 Y109.782 E15.08004
G1 X85.799 Y108.452 E15.1244
G1 X85.905 Y107.354 E15.16109
G1 X86.04 Y106.169 E15.20076
G1 X86.133 Y105.458 E15.22461
G1 X86.349 Y104.006 E15.27344
G1 X86.565 Y102.729 E15.31651
G1 X86.87 Y101.09 E15.37196
G1 X87.096 Y100.009 E15.40869
G1 X87.453 Y98.466 E15.46137
G1 X87.915 Y96.708 E15.52183
G1 X88.388 Y95.09 E15.57789
G1 X88.722 Y94.051 E15.61419
G1 X89.282 Y92.438 E15.67098
G1 X89.808 Y91.026 E15.7211
G1 X90.319 Y89.705 E15.76821
G1 X90.926 Y88.193 E15.8224
G1 X91.4 Y87.102 E15.86196
G1 X91.857 Y86.137 E15.89748
G1 X92.293 Y85.301 E15.92884
G1 X92.582 Y84.796 E15.94819
G1 X93.126 Y83.915 E15.98263
G1 X93.517 Y83.33 E16.00603
G1 X93.904 Y82.789 E16.02815
G1 X94.158 Y82.457 E16.04206
G1 X94.625 Y81.884 E16.06664
G0 F6000 X94.924 Y82.15
G1 F1200 X95.261 Y81.771 E16.08351
G1 X95.832 Y81.159 E16.11135
G1 X96.437 Y80.562 E16.13962
G1 X97.173 Y79.906 E16.17241
G1 X97.794 Y79.398 E16.1991
G1 X98.302 Y79.006 E16.22044
G1 X98.958 Y78.539 E16.24722
G1 X99.482 Y78.197 E16.26803
G1 X100.161 Y77.788 E16.2944
G1 X100.646 Y77.525 E16.31275
G1 X101.363 Y77.161 E16.33949
G1 X102.009 Y76.861 E16.36318
G1 X102.771 Y76.551 E16.39054
G1 X103.557 Y76.275 E16.41825
G1 X103.88 Y76.174 E16.42951
G1 X104.695 Y75.955 E16.45757
G1 X105.624 Y75.747 E16.48924
G1 X106.413 Y75.603 E16.51591
G1 X107.701 Y75.425 E16.55916
G1 X109.736 Y75.205 E16.62724
G1 X110.645 Y75.132 E16.65757
G1 X111.622 Y75.08 E16.69011
G1 X112.742 Y75.057 E16.72737
G1 X114.957 Y75.069 E16.80104
G1 X117.582 Y75.013 E16.88837
G1 X118.683 Y74.967 E16.92502
G1 X120.829 Y74.924 E16.99641
G1 X122.241 Y74.941 E17.04338
G1 X123.907 Y74.991 E17.09882
G1 X125.128 Y75.056 E17.13948
G1 X126.25 Y75.146 E17.17692
G1 X127.172 Y75.253 E17.20779
G1 X127.702 Y75.333 E17.22562
G1 X128.404 Y75.458 E17.24934
G1 X129.464 Y75.682 E17.28537
G1 X130.215 Y75.877 E17.31118
G1 X130.998 Y76.112 E17.33837
G1 X131.704 Y76.352 E17.36317
G1 X132.309 Y76.583 E17.38471
G1 X132.98 Y76.867 E17.40894
G1 X133.834 Y77.265 E17.44028
G1 X134.638 Y77.684 E17.47043
G1 X135.092 Y77.947 E17.48788
G1 X135.839 Y78.416 E17.51722
G1 X136.553 Y78.914 E17.54617
G1 X137.109 Y79.34 E17.56947
G1 X137.547 Y79.707 E17.58848
G1 X138.156 Y80.246 E17.61553
G1 X138.844 Y80.915 E17.64744
G1 X139.207 Y81.303 E17.66512
G1 X139.77 Y81.958 E17.69384
G1 X140.358 Y82.704 E17.72544
G1 X140.804 Y83.316 E17.75062
G1 X141.237 Y83.976 E17.77688
G1 X141.736 Y84.808 E17.80915
G1 X142.125 Y85.508 E17.83578
G1 X142.486 Y86.21 E17.86204
G1 X142.899 Y87.073 E17.89386
G1 X143.206 Y87.761 E17.91891
G1 X143.559 Y88.61 E17.9495
G1 X143.962 Y89.642 E17.98635
G1 X144.511 Y91.099 E18.03813
G1 X145.857 Y94.507 E18.16
G1 X146.367 Y95.893 E18.20912
G1 X146.708 Y96.926 E18.2453
G1 X146.979 Y97.839 E18.27698
G1 X147.092 Y98.263 E18.29157
G1 X147.396 Y99.544 E18.33536
G1 X147.639 Y100.751 E18.37631
G1 X148.065 Y103.132 E18.45676
G1 X148.298 Y104.526 E18.50377
G1 X148.487 Y105.795 E18.54644
G1 X148.601 Y106.709 E18.57708
G1 X148.696 Y107.639 E18.60817
G1 X148.803 Y109.059 E18.65554
G1 X148.869 Y110.296 E18.69674
G1 X148.976 Y113.574 E18.80582
